**kern	**kern
*staff2	*staff1
*clefF4	*clefG2
*k[b-]	*k[b-]
*M2/4	*M2/4
=-	=-
8r	8c
=365	=365
8r	(8f
(8A	4c)
8GL	.
8FJ)	(8f
=366	=366
8r	8g
(8E	4c)
8DL	.
8CJ	(8g
=367	=367
8FL	8aL
8C#J	8eJ
8DL)	8fL)
8BB-'J	8g'J 8b-'
=368	=368
4.C	(4f 4a
.	8eL) 8g
8r	8cc'J
=369	=369
8FF' 8F'	8a' 8cc'
(4GG 4G	(4g 4b-
8AA) 8A	8f) 8a
=370	=370
8BB-' 8B-'	8b-' 8dd'
(4C 4c	(4g 4b- 4ee
8D) 8d	8f) 8a 8ff
=371	=371
*^	*^
8AL	8CL	8f'L	4r
8AJ	8CJ	8f'J	.
8B-L	8CL	(16gLL	4e
.	.	16f	.
8B-J	8CJ	16g	.
.	.	16aJJ)	.
=372	=372	=372	=372
8A	8FL	4f	4f
8r	8CJ	.	.
4r	8FF	8r	8r
*	*	*v	*v
*v	*v	*
*-	*-
